X:38
T:Champion's Hornpipe, The 1a
R:hp 32
S:Gavin Atkin
M:4/4
L:1/8
Q:2/4=90
K:Em
B,|:E>FG>A .B2e>B|c>B (3ABc .B2e>B|\
c>B (3ABc B>AG>B|1A>G (3FGA G>FE>D:|2A>GF>G .E2E|]
B|:(3ddd e>d .B2G2|(3ggg a>g .e2c2|\
D>EF>G A>Bc>d|1e>d^c<d .B2B2:|2e>d^c<d .G2G|]

